X:54
T: FEINDE RINGSUM FEINDE RINGSUM
N: B0068
O: Europa, Mitteleuropa, Deutschland
R: Kriegs -, Sieges -, Soldaten - Lied
M: 4/4
L: 1/8
K: Eb
 | E4G2E2 | B4z4 |
B4c2d2 | e4z4 |
c2cccAec | cBB2z4 |
c2cccAec | cBB2z4 |
c4cBAG | F4z4 |
G4BGAF | E4z4

@@@ Tune index: 1857
